TPFinal/static/svgs/solid/users-between-lines.svg

<svg xmlns="http://www.w3.org/2000/svg" viewBox="0 0 640 512"><!--! Font Awesome Free 6.2.1 by @fontawesome - https://fontawesome.com License - https://fontawesome.com/license/free (Icons: CC BY 4.0, Fonts: SIL OFL 1.1, Code: MIT License) Copyright 2022 Fonticons, Inc. --><path d="M0 24C0 10.7 10.7 0 24 0H616c13.3 0 24 10.7 24 24s-10.7 24-24 24H24C10.7 48 0 37.3 0 24zM0 488c0-13.3 10.7-24 24-24H616c13.3 0 24 10.7 24 24s-10.7 24-24 24H24c-13.3 0-24-10.7-24-24zM211.2 160c0 35.3-28.7 64-64 64s-64-28.7-64-64s28.7-64 64-64s64 28.7 64 64zM32 320c0-35.3 28.7-64 64-64h96c12.2 0 23.7 3.4 33.4 9.4c-37.2 15.1-65.6 47.2-75.8 86.6H64c-17.7 0-32-14.3-32-32zm461.6 32c-10.3-40.1-39.6-72.6-77.7-87.4c9.4-5.5 20.4-8.6 32.1-8.6h96c35.3 0 64 28.7 64 64c0 17.7-14.3 32-32 32H493.6zM391.2 290.4c32.1 7.4 58.1 30.9 68.9 61.6c3.5 10 5.5 20.8 5.5 32c0 17.7-14.3 32-32 32h-224c-17.7 0-32-14.3-32-32c0-11.2 1.9-22 5.5-32c10.5-29.7 35.3-52.8 66.1-60.9c7.8-2.1 16-3.1 24.5-3.1h96c7.4 0 14.7 .8 21.6 2.4zM563.2 160c0 35.3-28.7 64-64 64s-64-28.7-64-64s28.7-64 64-64s64 28.7 64 64zM321.6 256c-44.2 0-80-35.8-80-80s35.8-80 80-80s80 35.8 80 80s-35.8 80-80 80z"/></svg>

<svg xmlns="http://www.w3.org/2000/svg" viewBox="0 0 640 512"><!--! Font Awesome Free 6.1.1 by @fontawesome - https://fontawesome.com License - https://fontawesome.com/license/free (Icons: CC BY 4.0, Fonts: SIL OFL 1.1, Code: MIT License) Copyright 2022 Fonticons, Inc. --><path d="M0 24C0 10.75 10.75 0 24 0H616C629.3 0 640 10.75 640 24C640 37.25 629.3 48 616 48H24C10.75 48 0 37.25 0 24zM0 488C0 474.7 10.75 464 24 464H616C629.3 464 640 474.7 640 488C640 501.3 629.3 512 616 512H24C10.75 512 0 501.3 0 488zM211.2 160C211.2 195.3 182.5 224 147.2 224C111.9 224 83.2 195.3 83.2 160C83.2 124.7 111.9 96 147.2 96C182.5 96 211.2 124.7 211.2 160zM32 320C32 284.7 60.65 256 96 256H192C204.2 256 215.7 259.4 225.4 265.4C188.2 280.5 159.8 312.6 149.6 352H64C46.33 352 32 337.7 32 320V320zM415.9 264.6C425.3 259.1 436.3 256 448 256H544C579.3 256 608 284.7 608 320C608 337.7 593.7 352 576 352H493.6C483.2 311.9 453.1 279.4 415.9 264.6zM391.2 290.4C423.3 297.8 449.3 321.3 460.1 352C463.7 362 465.6 372.8 465.6 384C465.6 401.7 451.3 416 433.6 416H209.6C191.9 416 177.6 401.7 177.6 384C177.6 372.8 179.5 362 183.1 352C193.6 322.3 218.3 299.2 249.1 291.1C256.1 289.1 265.1 288 273.6 288H369.6C377 288 384.3 288.8 391.2 290.4zM563.2 160C563.2 195.3 534.5 224 499.2 224C463.9 224 435.2 195.3 435.2 160C435.2 124.7 463.9 96 499.2 96C534.5 96 563.2 124.7 563.2 160zM241.6 176C241.6 131.8 277.4 96 321.6 96C365.8 96 401.6 131.8 401.6 176C401.6 220.2 365.8 256 321.6 256C277.4 256 241.6 220.2 241.6 176z"/></svg>
